src/assets/home-page-images/3.svg

<svg fill="none" height="164" viewBox="0 0 239 164" width="239" xmlns="http://www.w3.org/2000/svg" xmlns:xlink="http://www.w3.org/1999/xlink"><mask id="a" height="164" maskUnits="userSpaceOnUse" width="239" x="0" y="0"><path d="m.439476 61.6565c-.080066-1.0641-.152124-2.1121-.232191-3.1361-2.305915-29.2253 14.892415-46.194 38.359915-51.49026 6.6456-1.50407 12.0901-1.81608 18.4794.84803 8.1588 3.40013 16.6539 4.06413 24.9568.84004 9.1036-3.53615 16.9021-9.08039 26.8706-8.6803731 14.188.5760251 27.599 7.8963331 40.153 14.9766631 11.057 6.2322 21.77 8.2323 33.188 2.0561 16.013-8.6644 40.097 6.5842 31.258 28.6332-3.571 8.9044-9.248 20.0089-4.652 29.9293 3.963 8.5364 14.46 12.6485 20.073 19.8328 6.181 7.9121 10.881 18.5131 9.552 29.4811-2.923 24.049-31.611 33.978-48.873 36.73-10.249 1.632-21.954 1.16-31.21-4.688-7.823-4.945-13.739-13.833-22.651-16.449-13.155-3.864-24.38 12.552-35.477 18.025-12.3467 6.088-27.4473 8.68-37.5677-3.849-8.1348-10.056-8.1268-32.705-21.3538-36.505-7.4862-2.152-15.2207.152-22.4427-3.896-16.05334-8.985-17.11022-34.0897-18.431324-52.6585z" fill="#dee4ff" opacity=".8"/></mask><path d="m.439476 61.6391c-.080066-1.064-.152124-2.112-.232191-3.1361-2.305915-29.2252 14.892415-46.194 38.359915-51.4902 6.6456-1.50406 12.0901-1.81608 18.4794.84804 8.1588 3.40016 16.6539 4.06416 24.9568.84003 9.1036-3.53615 16.9021-9.080384 26.8706-8.6803671 14.188.5760251 27.599 7.8963371 40.153 14.9765971 11.057 6.2323 21.77 8.2324 33.188 2.0561 16.013-8.66434 40.097 6.5843 31.258 28.6333-3.571 8.9043-9.248 20.0088-4.652 29.9293 3.963 8.5363 14.46 12.6485 20.073 19.8328 6.181 7.9124 10.881 18.5124 9.552 29.4814-2.923 24.049-31.611 33.977-48.873 36.729-10.249 1.633-21.954 1.16-31.21-4.688-7.823-4.944-13.739-13.832-22.651-16.448-13.155-3.865-24.38 12.552-35.477 18.024-12.3467 6.089-27.4473 8.681-37.5677-3.848-8.1348-10.056-8.1268-32.705-21.3538-36.505-7.4862-2.152-15.2207.152-22.4427-3.897-16.05334-8.984-17.11022-34.0891-18.431324-52.6579z" fill="#dee4ff" opacity=".7"/><g mask="url(#a)"><path d="m120.124 44.4215c0 2.333-1.89 4.2233-4.224 4.2233-2.333 0-4.223-1.8903-4.223-4.2233s1.89-4.2233 4.223-4.2233c2.334 0 4.224 1.8903 4.224 4.2233z" fill="#ffc1ac"/><path d="m144.577 44.4215c0 2.333-1.89 4.2233-4.223 4.2233s-4.223-1.8903-4.223-4.2233 1.89-4.2233 4.223-4.2233 4.223 1.8903 4.223 4.2233z" fill="#ffc1ac"/><path d="m126.812 136.229c.145-.885.429-1.738.793-2.571l-16.173-.733s-6.946 14.48-5.366 26.436h20.581c.224-7.501-1.375-15.432.165-23.132z" fill="#ffb84d"/><path d="m147.948 134.577-20.343-.919c-.357.833-.641 1.686-.793 2.571-1.54 7.706.059 15.631-.172 23.132h27.269s-.403-13.317-5.961-24.784z" fill="#ffc773"/><path d="m110.652 81.6242 13.946-12.1542h10.059l9.801 13.7007s6.662 17.3753 8.348 62.9653c0 0-32.418 8.592-46.978 0 3.529-32.167 4.441-61.465 4.441-61.465z" fill="#6785ff"/><path d="m128.134 145.812c1.348 0 2.313.886 2.313 1.983v7.27c0 1.097-.965 1.983-2.313 1.983-.588 0-1.104-.172-1.5-.449" stroke="#ad6800" stroke-dasharray="1 1" stroke-miterlimit="10"/><path d="m120.13 72.9663c-.621 1.3351-3.331 2.8486-4.441 3.8598-1.468 1.3284-2.902 2.7031-4.283 4.1307-2.842 2.9278-5.499 6.054-7.911 9.3519-3.8335 5.2609-7.0654 10.8783-9.286 17.0323-2.115 5.862-4.3687 14.216 1.7977 18.38 3.9983 2.703 9.9603 3.555 14.6523 3.899.542.04 8.129.106 8.136.126l-1.758-4.125c-2.756-1.573-5.532-2.993-8.374-4.395-2.214-1.084-5.366-2.478-4.811-5.624.515-2.908 4.428-11.659 5.73-14.256 1.355-2.6899 1.308.37 2.234-2.5048.006.0132 8.294-25.8352 8.314-25.8749z" fill="#ffc1ac"/><path d="m150.01 110.434c-1.567-1.904-2.935-3.999-4.607-5.797 1.183 9.181 1.355 19.702 1.897 34.348 0 0-14.428 7.27-41.234 4.964-.238 2.194 0 0-.238 2.194 14.56 8.592 46.978 0 46.978 0-.542-14.732-1.606-26.509-2.796-35.709z" fill="#476cff"/><path d="m137.043 72.854c.667 1.302 3.41 2.6899 4.554 3.6483 1.507 1.2623 2.98 2.5709 4.408 3.9258 2.928 2.7957 5.69 5.7896 8.202 8.9818 4.005 5.0759 7.422 10.5417 9.861 16.5891 2.32 5.763 4.877 13.998-1.091 18.446-3.873 2.888-9.755 4.012-14.401 4.574-.535.066-7.072.436-7.072.456l.588-4.151c2.677-1.698 5.38-3.245 8.149-4.778 2.155-1.19 5.235-2.723 4.567-5.843-.621-2.881-4.765-10.991-6.159-13.522-1.448-2.624-1.355-.02-2.38-2.8487-.006 0-9.213-25.4386-9.226-25.4783z" fill="#ffc1ac"/><path d="m151.246 106.726-8.691-10.9581s-5.499-22.8743-5.518-22.9073c10.713 2.8552 17.501 9.8741 21.816 17.2433-2.3 9.7749-7.607 16.6221-7.607 16.6221z" fill="#6785ff"/><path d="m124.129 53.6147-3.926 19.7284s8.744 17.4415 17.124-.5155l-4.699-19.2129z" fill="#ffb9a1"/><path d="m132.628 53.6147h-8.5l-3.886 19.5301c4.501-3.4896 10.192-6.1928 15.102-8.4399z" fill="#ffb296"/><path d="m140.691 50.3101c0 6.933-5.624 12.5574-12.557 12.5574s-12.557-5.6244-12.557-12.5574v-13.2183c0-6.933 5.624-12.5574 12.557-12.5574s12.557 5.6244 12.557 12.5574z" fill="#ffc1ac"/><path d="m134.479 23.9197c2.412 1.7845 4.606 3.8466 5.115 4.4678 2.036 2.4719-.489 4.0052-2.531 4.7718-1.349.5023-2.756.846-4.164 1.0906-1.494.2511-2.968.9979-3.886-.4891-.621-1.0046.152-2.1546-1.699-1.8308-2.287.3966-5.485 4.5538-7.283 1.5796-.549-.9054-.489-2.2933-1.474-2.9014-1.104-.6807-2.703.1785-3.813.3503-2.175.3371-4.495-.8129-2.195-2.9675 1.831-1.7118 4.409-1.5664 6.464-2.6437-2.683-.8988 1.296-2.4586 2.32-2.5181 1.897-.1123 3.787.152 5.677.2512.027-3.7408 3.986-1.7382 7.469.8393z" fill="#1f2f6d"/><path d="m138.153 32.1615c.351 1.758 1.772 10.3962 1.772 10.3962 1.123-3.8466 3.093-8.3606 1.731-12.3393-.258-.7469-.919-1.5796-1.877-1.8308-1.143-.2974-1.791.4759-1.837 1.3351-.04.8261.053 1.6391.211 2.4388z" fill="#1f2f6d"/><path d="m118.518 32.2142c-.397 1.8637-2.148 11.4801-2.036 11.0042-1.289-4.0712-3.556-8.8431-1.989-13.0597.291-.7931 1.057-1.6721 2.154-1.9365 1.309-.3106 2.062.5023 2.109 1.4078.046.879-.053 1.7382-.238 2.5842z" fill="#1f2f6d"/><path d="m127.611 42.1809s.443 2.3925-1.269 8.5258c0 0 1.824 1.117 4.052 0" stroke="#bf826d" stroke-linecap="round" stroke-linejoin="round" stroke-miterlimit="10"/><path d="m133.533 43.1458c0 .423-.343.7733-.773.7733-.423 0-.773-.3437-.773-.7733 0-.423.343-.7732.773-.7732.423.0066.773.3502.773.7732z" fill="#000"/><path d="m144.492 90.7914s-1.587-5.5517.912 13.8466c1.672 1.797 3.04 3.892 4.606 5.796-2.498-19.2924-5.518-19.6426-5.518-19.6426z" fill="#476cff"/><path d="m124.281 43.1458c0 .423-.344.7733-.773.7733-.423 0-.774-.3437-.774-.7733 0-.423.344-.7732.774-.7732.423.0066.773.3502.773.7732z" fill="#000"/><g stroke-linecap="round" stroke-linejoin="round" stroke-miterlimit="10"><path d="m120.526 41.6322s1.071-1.6523 3.424-1.8968" stroke="#1f2f6d" stroke-width="1.5"/><path d="m135.186 41.6322s-1.071-1.6523-3.424-1.8968" stroke="#1f2f6d" stroke-width="1.5"/><path d="m126.35 55.5977s5.644 2.148 8.843-3.7276" stroke="#bf826d"/><path d="m135.047 51.2683.753.4825" stroke="#bf826d"/></g><path d="m121.392 124.782c-2.029 2.34-4.163 3.701-4.771 3.054-.609-.648.548-3.074 2.577-5.413 2.029-2.34 4.164-3.701 4.772-3.054.608.655-.549 3.073-2.578 5.413z" fill="#ffc1ac"/><path d="m132.76 57.0249c.436-.2247 1.203-.8063 1.586-1.2227" stroke="#bf826d" stroke-linecap="round" stroke-linejoin="round" stroke-miterlimit="10" stroke-width=".5"/><path d="m138.398 124.782c2.029 2.34 4.164 3.701 4.772 3.054.608-.648-.549-3.074-2.578-5.413-2.029-2.34-4.164-3.701-4.772-3.054-.601.655.549 3.073 2.578 5.413z" fill="#ffc1ac"/><path d="m136.964 132.568c0 .515-.8 1.017-1.58 1.017h-8.076c-.78 0-1.626-.621-1.626-1.136l-3.609-16.259c0-.515.628-1.11 1.408-1.11h14.368c.78 0 1.408.595 1.408 1.11z" fill="#867575"/><path d="m137.981 115.397-11.843 17.792c.317.271.747.39 1.17.39h8.076c.78 0 1.579-.503 1.579-1.018l2.3-16.226c-.006-.482-.568-.885-1.282-.938z" fill="#756666"/><path d="m128.794 127.102c0 4.124-2.736 4.124-6.113 4.124s-6.114-1.844-6.114-4.124c0-2.274 2.737-4.124 6.114-4.124s6.113 1.85 6.113 4.124z" fill="#ffc1ac"/><path d="m130.996 127.102c0 4.124 2.736 4.124 6.113 4.124s6.114-1.844 6.114-4.124c0-2.274-2.737-4.124-6.114-4.124-3.371 0-6.113 1.85-6.113 4.124z" fill="#ffc1ac"/><path d="m107.354 107.387 8.222-11.3085s4.706-23.1717 4.719-23.1981c-10.588 3.3045-17.237 10.6804-21.2418 18.2214 2.2408 7.3957 8.3008 16.2852 8.3008 16.2852z" fill="#6785ff"/><path d="m112.78 92.199s-2.101 4.4347-3.74 11.493" stroke="#fff" stroke-linecap="round" stroke-linejoin="round" stroke-miterlimit="10"/><path d="m145.536 92.199s2.61 4.6793 4.553 12.022" stroke="#fff" stroke-linecap="round" stroke-linejoin="round" stroke-miterlimit="10"/><path d="m115.021 43.7804c-.284-.0661-.588.0727-.832.3701-.014-.1454-.02-.3173-.02-.5288 0-.6344.39-1.1632.852-1.1632.185 0 .331-.1454.331-.3304 0-.1851-.146-.3305-.331-.3305-.839 0-1.513.8195-1.513 1.8241 0 1.1897.178 1.7448.608 1.877.053.0199.106.0265.158.0265.265 0 .503-.1983.708-.4429v.0397c-.014.6477-.397 1.1698-.853 1.1698-.185 0-.33.1454-.33.3305 0 .185.145.3304.33.3304.826 0 1.494-.7997 1.514-1.8175.026-.9913-.324-1.2888-.622-1.3548z" fill="#ab7461"/><path d="m141.234 43.7804c.284-.0661.588.0727.832.3701.013-.1454.02-.3173.02-.5288 0-.6344-.39-1.1632-.852-1.1632-.186 0-.331-.1454-.331-.3304 0-.1851.145-.3305.331-.3305.839 0 1.513.8195 1.513 1.8241 0 1.1897-.178 1.7448-.608 1.877-.053.0199-.106.0265-.159.0265-.264 0-.502-.1983-.707-.4429v.0397c.013.6477.397 1.1698.853 1.1698.185 0 .33.1454.33.3305 0 .185-.145.3304-.33.3304-.826 0-1.494-.7997-1.514-1.8175-.026-.9913.324-1.2888.622-1.3548z" fill="#ab7461"/><path d="m101.81 85.6692s-2.3136 2.4189-3.0869 4.6132c0 0 2.4719 12.6436 8.9689 17.6006 0 0 2.617-2.433 3.053-4.389.007-.007-6.516-9.6427-8.935-17.8248z" fill="#a1b3ff"/><path d="m156.573 85.6692s2.313 2.4189 3.086 4.6132c0 0-2.472 12.6436-8.968 17.6006 0 0-2.618-2.433-3.054-4.389-.006-.007 6.51-9.6427 8.936-17.8248z" fill="#a1b3ff"/><path d="m129.317 81.155c-1.097.1124-2.221-.0198-3.357-.5023-1.983-.8393-3.536-2.2273-4.964-3.8135-.502-.5617-1.877-2.0554-2.419-3.3772-.363-.8857 1.428-2.2736 1.811-1.963.549.4363 2.399 3.1064 3.212 3.9325 2.875 2.9146 6.537 3.3046 9.768.9121 1.25-.9253 2.69-2.5049 3.629-3.7739.78-1.0574 3.06 1.2359.7 3.5756-2.24 2.2074-5.181 4.6727-8.38 5.0097z" fill="#a1b3ff"/><path d="m138.246 32.6371 1.354-4.2496" stroke="#fff" stroke-linecap="round" stroke-linejoin="round" stroke-miterlimit="10" stroke-width=".25"/></g></svg>

<svg width="239" height="164" viewBox="0 0 239 164" fill="none" xmlns="http://www.w3.org/2000/svg"><path opacity=".7" d="M0.439476 61.6391C0.35941 60.5751 0.287352 59.5271 0.207285 58.503C-2.09863 29.2778 15.0997 12.309 38.5672 7.0128C45.2128 5.50874 50.6573 5.19672 57.0466 7.86084C65.2054 11.261 73.7005 11.925 82.0034 8.70087C91.107 5.16472 98.9055 -0.379514 108.874 0.0205029C123.062 0.596528 136.473 7.91684 149.027 14.9971C160.084 21.2294 170.797 23.2295 182.215 17.0532C198.228 8.38886 222.312 23.6375 213.473 45.6865C209.902 54.5908 204.225 65.6953 208.821 75.6158C212.784 84.1521 223.281 88.2643 228.894 95.4486C235.075 103.361 239.775 113.961 238.446 124.93C235.523 148.979 206.835 158.907 189.573 161.659C179.324 163.292 167.619 162.819 158.363 156.971C150.54 152.027 144.624 143.139 135.712 140.523C122.557 136.658 111.332 153.075 100.235 158.547C87.8883 164.636 72.7877 167.228 62.6673 154.699C54.5325 144.643 54.5405 121.994 41.3135 118.194C33.8273 116.042 26.0928 118.346 18.8708 114.297C2.81746 105.313 1.76058 80.2079 0.439476 61.6391Z" fill="#DEE4FF"/><mask id="mask0" mask-type="alpha" maskUnits="userSpaceOnUse" x="0" y="0" width="239" height="164"><path opacity=".8" d="M0.439476 61.6565C0.35941 60.5924 0.287352 59.5444 0.207285 58.5204C-2.09863 29.2951 15.0997 12.3264 38.5672 7.03014C45.2128 5.52607 50.6573 5.21406 57.0466 7.87817C65.2054 11.2783 73.7005 11.9423 82.0034 8.71821C91.107 5.18206 98.9055 -0.36218 108.874 0.0378369C123.062 0.613862 136.473 7.93417 149.027 15.0145C160.084 21.2467 170.797 23.2468 182.215 17.0706C198.228 8.4062 222.312 23.6548 213.473 45.7038C209.902 54.6082 204.225 65.7127 208.821 75.6331C212.784 84.1695 223.281 88.2816 228.894 95.4659C235.075 103.378 239.775 113.979 238.446 124.947C235.523 148.996 206.835 158.925 189.573 161.677C179.324 163.309 167.619 162.837 158.363 156.989C150.54 152.044 144.624 143.156 135.712 140.54C122.557 136.676 111.332 153.092 100.235 158.565C87.8883 164.653 72.7877 167.245 62.6673 154.716C54.5325 144.66 54.5405 122.011 41.3135 118.211C33.8273 116.059 26.0928 118.363 18.8708 114.315C2.81746 105.33 1.76058 80.2253 0.439476 61.6565Z" fill="#DEE4FF"/></mask><g mask="url(#mask0)"><path d="M120.124 44.4215C120.124 46.7545 118.234 48.6448 115.9 48.6448C113.567 48.6448 111.677 46.7545 111.677 44.4215C111.677 42.0885 113.567 40.1982 115.9 40.1982C118.234 40.1982 120.124 42.0885 120.124 44.4215Z" fill="#FFC1AC"/><path d="M144.577 44.4215C144.577 46.7545 142.687 48.6448 140.354 48.6448C138.021 48.6448 136.131 46.7545 136.131 44.4215C136.131 42.0885 138.021 40.1982 140.354 40.1982C142.687 40.1982 144.577 42.0885 144.577 44.4215Z" fill="#FFC1AC"/><path d="M126.812 136.229C126.957 135.344 127.241 134.491 127.605 133.658L111.432 132.925C111.432 132.925 104.486 147.405 106.066 159.361H126.647C126.871 151.86 125.272 143.929 126.812 136.229Z" fill="#FFB84D"/><path d="M147.948 134.577L127.605 133.658C127.248 134.491 126.964 135.344 126.812 136.229C125.272 143.935 126.871 151.86 126.64 159.361H153.909C153.909 159.361 153.506 146.044 147.948 134.577Z" fill="#FFC773"/><path d="M110.652 81.6242L124.598 69.47H134.657L144.458 83.1707C144.458 83.1707 151.12 100.546 152.806 146.136C152.806 146.136 120.388 154.728 105.828 146.136C109.357 113.969 110.269 84.671 110.269 84.671L110.652 81.6242Z" fill="#6785FF"/><path d="M128.134 145.812C129.482 145.812 130.447 146.698 130.447 147.795V155.065C130.447 156.162 129.482 157.048 128.134 157.048C127.546 157.048 127.03 156.876 126.634 156.599" stroke="#AD6800" stroke-miterlimit="10" stroke-dasharray="1 1"/><path d="M120.13 72.9663C119.509 74.3014 116.799 75.8149 115.689 76.8261C114.221 78.1545 112.787 79.5292 111.406 80.9568C108.564 83.8846 105.907 87.0108 103.495 90.3087C99.6615 95.5696 96.4296 101.187 94.209 107.341C92.094 113.203 89.8403 121.557 96.0067 125.721C100.005 128.424 105.967 129.276 110.659 129.62C111.201 129.66 118.788 129.726 118.795 129.746L117.037 125.621C114.281 124.048 111.505 122.628 108.663 121.226C106.449 120.142 103.297 118.748 103.852 115.602C104.367 112.694 108.28 103.943 109.582 101.346C110.937 98.6561 110.89 101.716 111.816 98.8412C111.822 98.8544 120.11 73.006 120.13 72.9663Z" fill="#FFC1AC"/><path d="M150.01 110.434C148.443 108.53 147.075 106.435 145.403 104.637C146.586 113.818 146.758 124.339 147.3 138.985C147.3 138.985 132.872 146.255 106.066 143.949C105.828 146.143 106.066 143.949 105.828 146.143C120.388 154.735 152.806 146.143 152.806 146.143C152.264 131.411 151.2 119.634 150.01 110.434Z" fill="#476CFF"/><path d="M137.043 72.854C137.71 74.156 140.453 75.5439 141.597 76.5023C143.104 77.7646 144.577 79.0732 146.005 80.4281C148.933 83.2238 151.695 86.2177 154.207 89.4099C158.212 94.4858 161.629 99.9516 164.068 105.999C166.388 111.762 168.945 119.997 162.977 124.445C159.104 127.333 153.222 128.457 148.576 129.019C148.041 129.085 141.504 129.455 141.504 129.475L142.092 125.324C144.769 123.626 147.472 122.079 150.241 120.546C152.396 119.356 155.476 117.823 154.808 114.703C154.187 111.822 150.043 103.712 148.649 101.181C147.201 98.557 147.294 101.161 146.269 98.3323C146.263 98.3323 137.056 72.8937 137.043 72.854Z" fill="#FFC1AC"/><path d="M151.246 106.726L142.555 95.7679C142.555 95.7679 137.056 72.8936 137.037 72.8606C147.75 75.7158 154.538 82.7347 158.853 90.1039C156.553 99.8788 151.246 106.726 151.246 106.726Z" fill="#6785FF"/><path d="M124.129 53.6147L120.203 73.3431C120.203 73.3431 128.947 90.7846 137.327 72.8276L132.628 53.6147H124.129Z" fill="#FFB9A1"/><path d="M132.628 53.6147H124.128L120.242 73.1448C124.743 69.6552 130.434 66.952 135.344 64.7049L132.628 53.6147Z" fill="#FFB296"/><path d="M140.691 50.3101C140.691 57.2431 135.067 62.8675 128.134 62.8675C121.201 62.8675 115.577 57.2431 115.577 50.3101V37.0918C115.577 30.1588 121.201 24.5344 128.134 24.5344C135.067 24.5344 140.691 30.1588 140.691 37.0918V50.3101Z" fill="#FFC1AC"/><path d="M134.479 23.9197C136.891 25.7042 139.085 27.7663 139.594 28.3875C141.63 30.8594 139.105 32.3927 137.063 33.1593C135.714 33.6616 134.307 34.0053 132.899 34.2499C131.405 34.501 129.931 35.2478 129.013 33.7608C128.392 32.7562 129.165 31.6062 127.314 31.93C125.027 32.3266 121.829 36.4838 120.031 33.5096C119.482 32.6042 119.542 31.2163 118.557 30.6082C117.453 29.9275 115.854 30.7867 114.744 30.9585C112.569 31.2956 110.249 30.1456 112.549 27.991C114.38 26.2792 116.958 26.4246 119.013 25.3473C116.33 24.4485 120.309 22.8887 121.333 22.8292C123.23 22.7169 125.12 22.9812 127.01 23.0804C127.037 19.3396 130.996 21.3422 134.479 23.9197Z" fill="#1F2F6D"/><path d="M138.153 32.1615C138.504 33.9195 139.925 42.5577 139.925 42.5577C141.048 38.7111 143.018 34.1971 141.656 30.2184C141.398 29.4715 140.737 28.6388 139.779 28.3876C138.636 28.0902 137.988 28.8635 137.942 29.7227C137.902 30.5488 137.995 31.3618 138.153 32.1615Z" fill="#1F2F6D"/><path d="M118.518 32.2142C118.121 34.0779 116.37 43.6943 116.482 43.2184C115.193 39.1472 112.926 34.3753 114.493 30.1587C114.784 29.3656 115.55 28.4866 116.647 28.2222C117.956 27.9116 118.709 28.7245 118.756 29.63C118.802 30.509 118.703 31.3682 118.518 32.2142Z" fill="#1F2F6D"/><path d="M127.611 42.1809C127.611 42.1809 128.054 44.5734 126.342 50.7067C126.342 50.7067 128.166 51.8237 130.394 50.7067" stroke="#BF826D" stroke-miterlimit="10" stroke-linecap="round" stroke-linejoin="round"/><path d="M133.533 43.1458C133.533 43.5688 133.19 43.9191 132.76 43.9191C132.337 43.9191 131.987 43.5754 131.987 43.1458C131.987 42.7228 132.33 42.3726 132.76 42.3726C133.183 42.3792 133.533 42.7228 133.533 43.1458Z" fill="#000"/><path d="M144.492 90.7914C144.492 90.7914 142.905 85.2397 145.404 104.638C147.076 106.435 148.444 108.53 150.01 110.434C147.512 91.1416 144.492 90.7914 144.492 90.7914Z" fill="#476CFF"/><path d="M124.281 43.1458C124.281 43.5688 123.937 43.9191 123.508 43.9191C123.085 43.9191 122.734 43.5754 122.734 43.1458C122.734 42.7228 123.078 42.3726 123.508 42.3726C123.931 42.3792 124.281 42.7228 124.281 43.1458Z" fill="#000"/><path d="M120.526 41.6322C120.526 41.6322 121.597 39.9799 123.95 39.7354" stroke="#1F2F6D" stroke-width="1.5" stroke-miterlimit="10" stroke-linecap="round" stroke-linejoin="round"/><path d="M135.186 41.6322C135.186 41.6322 134.115 39.9799 131.762 39.7354" stroke="#1F2F6D" stroke-width="1.5" stroke-miterlimit="10" stroke-linecap="round" stroke-linejoin="round"/><path d="M126.35 55.5977C126.35 55.5977 131.994 57.7457 135.193 51.8701" stroke="#BF826D" stroke-miterlimit="10" stroke-linecap="round" stroke-linejoin="round"/><path d="M135.047 51.2683L135.8 51.7508" stroke="#BF826D" stroke-miterlimit="10" stroke-linecap="round" stroke-linejoin="round"/><path d="M121.392 124.782C119.363 127.122 117.229 128.483 116.621 127.836C116.012 127.188 117.169 124.762 119.198 122.423C121.227 120.083 123.362 118.722 123.97 119.369C124.578 120.024 123.421 122.442 121.392 124.782Z" fill="#FFC1AC"/><path d="M132.76 57.0249C133.196 56.8002 133.963 56.2186 134.346 55.8022" stroke="#BF826D" stroke-width=".5" stroke-miterlimit="10" stroke-linecap="round" stroke-linejoin="round"/><path d="M138.398 124.782C140.427 127.122 142.562 128.483 143.17 127.836C143.778 127.188 142.621 124.762 140.592 122.423C138.563 120.083 136.428 118.722 135.82 119.369C135.219 120.024 136.369 122.442 138.398 124.782Z" fill="#FFC1AC"/><path d="M136.964 132.568C136.964 133.083 136.164 133.585 135.384 133.585H127.308C126.528 133.585 125.682 132.964 125.682 132.449L122.073 116.19C122.073 115.675 122.701 115.08 123.481 115.08H137.849C138.629 115.08 139.257 115.675 139.257 116.19L136.964 132.568Z" fill="#867575"/><path d="M137.981 115.397L126.138 133.189C126.455 133.46 126.885 133.579 127.308 133.579H135.384C136.164 133.579 136.963 133.076 136.963 132.561L139.263 116.335C139.257 115.853 138.695 115.45 137.981 115.397Z" fill="#756666"/><path d="M128.794 127.102C128.794 131.226 126.058 131.226 122.681 131.226C119.304 131.226 116.567 129.382 116.567 127.102C116.567 124.828 119.304 122.978 122.681 122.978C126.058 122.978 128.794 124.828 128.794 127.102Z" fill="#FFC1AC"/><path d="M130.996 127.102C130.996 131.226 133.732 131.226 137.109 131.226C140.486 131.226 143.223 129.382 143.223 127.102C143.223 124.828 140.486 122.978 137.109 122.978C133.738 122.978 130.996 124.828 130.996 127.102Z" fill="#FFC1AC"/><path d="M107.354 107.387L115.576 96.0785C115.576 96.0785 120.282 72.9068 120.295 72.8804C109.707 76.1849 103.058 83.5608 99.0532 91.1018C101.294 98.4975 107.354 107.387 107.354 107.387Z" fill="#6785FF"/><path d="M112.78 92.199C112.78 92.199 110.679 96.6337 109.04 103.692" stroke="#fff" stroke-miterlimit="10" stroke-linecap="round" stroke-linejoin="round"/><path d="M145.536 92.199C145.536 92.199 148.146 96.8783 150.089 104.221" stroke="#fff" stroke-miterlimit="10" stroke-linecap="round" stroke-linejoin="round"/><path d="M115.021 43.7804C114.737 43.7143 114.433 43.8531 114.189 44.1505C114.175 44.0051 114.169 43.8332 114.169 43.6217C114.169 42.9873 114.559 42.4585 115.021 42.4585C115.206 42.4585 115.352 42.3131 115.352 42.1281C115.352 41.943 115.206 41.7976 115.021 41.7976C114.182 41.7976 113.508 42.6171 113.508 43.6217C113.508 44.8114 113.686 45.3665 114.116 45.4987C114.169 45.5186 114.222 45.5252 114.274 45.5252C114.539 45.5252 114.777 45.3269 114.982 45.0823C114.982 45.0956 114.982 45.1088 114.982 45.122C114.968 45.7697 114.585 46.2918 114.129 46.2918C113.944 46.2918 113.799 46.4372 113.799 46.6223C113.799 46.8073 113.944 46.9527 114.129 46.9527C114.955 46.9527 115.623 46.153 115.643 45.1352C115.669 44.1439 115.319 43.8464 115.021 43.7804Z" fill="#AB7461"/><path d="M141.234 43.7804C141.518 43.7143 141.822 43.8531 142.066 44.1505C142.079 44.0051 142.086 43.8332 142.086 43.6217C142.086 42.9873 141.696 42.4585 141.234 42.4585C141.048 42.4585 140.903 42.3131 140.903 42.1281C140.903 41.943 141.048 41.7976 141.234 41.7976C142.073 41.7976 142.747 42.6171 142.747 43.6217C142.747 44.8114 142.569 45.3665 142.139 45.4987C142.086 45.5186 142.033 45.5252 141.98 45.5252C141.716 45.5252 141.478 45.3269 141.273 45.0823C141.273 45.0956 141.273 45.1088 141.273 45.122C141.286 45.7697 141.67 46.2918 142.126 46.2918C142.311 46.2918 142.456 46.4372 142.456 46.6223C142.456 46.8073 142.311 46.9527 142.126 46.9527C141.3 46.9527 140.632 46.153 140.612 45.1352C140.586 44.1439 140.936 43.8464 141.234 43.7804Z" fill="#AB7461"/><path d="M101.81 85.6692C101.81 85.6692 99.4964 88.0881 98.7231 90.2824C98.7231 90.2824 101.195 102.926 107.692 107.883C107.692 107.883 110.309 105.45 110.745 103.494C110.752 103.487 104.229 93.8513 101.81 85.6692Z" fill="#A1B3FF"/><path d="M156.573 85.6692C156.573 85.6692 158.886 88.0881 159.659 90.2824C159.659 90.2824 157.187 102.926 150.691 107.883C150.691 107.883 148.073 105.45 147.637 103.494C147.631 103.487 154.147 93.8513 156.573 85.6692Z" fill="#A1B3FF"/><path d="M129.317 81.155C128.22 81.2674 127.096 81.1352 125.96 80.6527C123.977 79.8134 122.424 78.4254 120.996 76.8392C120.494 76.2775 119.119 74.7838 118.577 73.462C118.214 72.5763 120.005 71.1884 120.388 71.499C120.937 71.9353 122.787 74.6054 123.6 75.4315C126.475 78.3461 130.137 78.7361 133.368 76.3436C134.618 75.4183 136.058 73.8387 136.997 72.5697C137.777 71.5123 140.057 73.8056 137.697 76.1453C135.457 78.3527 132.516 80.818 129.317 81.155Z" fill="#A1B3FF"/><path d="M138.246 32.6371L139.6 28.3875" stroke="#fff" stroke-width=".25" stroke-miterlimit="10" stroke-linecap="round" stroke-linejoin="round"/></g></svg>
